meat/img/sprite/cart.svg

<svg width="40" height="40" viewBox="0 0 40 40" fill="none" xmlns="http://www.w3.org/2000/svg">
<g clip-path="url(#clip0)">
<path d="M32.2125 26.8634H18.251C16.2355 26.8634 14.0778 25.3944 13.3395 23.5187L7.69737 9.19704C7.39949 8.44066 6.34973 7.72607 5.53681 7.72607H1.47875C0.662139 7.72648 0 7.06434 0 6.24773C0 5.43112 0.662139 4.76898 1.47875 4.76898H5.53722C7.55314 4.76898 9.71042 6.2379 10.4488 8.11369L16.0909 22.4353C16.3888 23.1917 17.4385 23.9063 18.251 23.9063H32.2125C33.0053 23.9063 34.0051 23.1995 34.2694 22.4525L36.9892 14.7666C37.0654 14.5515 37.0462 14.4204 37.0253 14.3905C37.004 14.3606 36.8868 14.2991 36.6586 14.2991H17.4033C16.5867 14.2991 15.9245 13.637 15.9245 12.8204C15.9245 12.0038 16.5867 11.3416 17.4033 11.3416H36.6586C37.8235 11.3416 38.8372 11.8308 39.4403 12.6835C40.043 13.5362 40.1659 14.6548 39.7771 15.7529L37.0573 23.4388C36.3779 25.3588 34.2497 26.8634 32.2125 26.8634Z" fill="white"/>
<path d="M14.4503 35.2311C16.2652 35.2311 17.7364 33.7599 17.7364 31.945C17.7364 30.1301 16.2652 28.6589 14.4503 28.6589C12.6354 28.6589 11.1642 30.1301 11.1642 31.945C11.1642 33.7599 12.6354 35.2311 14.4503 35.2311Z" fill="white"/>
<path d="M35.5199 35.2311C37.3347 35.2311 38.806 33.7599 38.806 31.945C38.806 30.1301 37.3347 28.6589 35.5199 28.6589C33.705 28.6589 32.2338 30.1301 32.2338 31.945C32.2338 33.7599 33.705 35.2311 35.5199 35.2311Z" fill="white"/>
<path d="M32.1601 17.845H19.0988C18.6903 17.845 18.3596 17.5139 18.3596 17.1058C18.3596 16.6973 18.6907 16.3666 19.0988 16.3666H32.1601C32.5686 16.3666 32.8992 16.6977 32.8992 17.1058C32.8992 17.5139 32.5686 17.845 32.1601 17.845Z" fill="white"/>
<path d="M31.1611 21.5416H20.4312C20.0231 21.5416 19.6921 21.2106 19.6921 20.8025C19.6921 20.394 20.0231 20.0633 20.4312 20.0633H31.1615C31.57 20.0633 31.9007 20.3944 31.9007 20.8025C31.9003 21.2106 31.5696 21.5416 31.1611 21.5416Z" fill="white"/>
</g>
<defs>
<clipPath id="clip0">
<rect width="40" height="40" fill="white"/>
</clipPath>
</defs>
</svg>

<svg width="40" height="40" fill="none" xmlns="http://www.w3.org/2000/svg"><g clip-path="url(#clip0)" fill="#fff"><path d="M32.212 26.863H18.252c-2.016 0-4.173-1.469-4.912-3.344L7.697 9.197c-.298-.756-1.347-1.47-2.16-1.47H1.479a1.478 1.478 0 1 1 0-2.958h4.058c2.016 0 4.173 1.469 4.912 3.345l5.642 14.321c.298.757 1.348 1.471 2.16 1.471h13.961c.793 0 1.793-.706 2.057-1.453l2.72-7.686c.076-.215.057-.347.036-.377-.021-.03-.138-.09-.366-.09H17.403a1.479 1.479 0 0 1 0-2.958H36.66c1.165 0 2.178.489 2.781 1.341.603.853.726 1.972.337 3.07l-2.72 7.686c-.68 1.92-2.807 3.424-4.845 3.424zM14.45 35.231a3.286 3.286 0 1 0 0-6.572 3.286 3.286 0 0 0 0 6.572zM35.52 35.231a3.286 3.286 0 1 0 0-6.572 3.286 3.286 0 0 0 0 6.572z"/><path d="M32.16 17.845H19.1a.74.74 0 1 1 0-1.478H32.16a.739.739 0 1 1 0 1.478zM31.161 21.542h-10.73a.74.74 0 0 1 0-1.479h10.73a.74.74 0 1 1 0 1.479z"/></g><defs><clipPath id="clip0"><path fill="#fff" d="M0 0h40v40H0z"/></clipPath></defs></svg>
